X:362
T:Mazurka efter Jöns Ohlsson fr Tosthult
C:Jöns Ohlsson
R:Mazurka
Z:Patrik Månsson, 2008-07-24,
O:Tosthult, Lönsboda, Skåne
M:3/4
L:1/8
K:G
|: dedcBA | GD GB d2 | cAF AcA | GD GB d2 |
dedcBA | GD GB d2 | dedcAF | G2 G2 z2 :|
|: dedc B2 | cdcB A2 | ABABAG | AGFE D2 |
dedc B2 | cdcB A2 | dedcAF | G2 G2 z2 :|

(:musicend:)

(:music:)
